X:165
T:Reina
O:klezmer
M:4/4
L:1/8
Q:1/4=162
K:F
V:1
z2 Ad e|"Dm" f4 fe ed |"Gm" g2 "Dm" (f2 f4) |fg fg f2 ed |
df "C" eg "F" f4 |"C" ef gg g2 g2 |gf ed e/f/e/d/ c2 |"Dm" de f2 "A7" ed ag |
"Dm" dd' c'b "A7" ag fe |"Dm" de (f2 f2) ed |g2 (f2 f4) |fg fg f2 ed |
df "C" eg "F" f4 |"C" ef g2 g2 fg |"Fm" ^gg f^g "C" g4 |"Dm" f2 ed "A" ef ge |
"Dm" (d4 d)"A" A B^c |





